svg/Filled/push_filled.svg

<svg viewBox="0 0 24 24" xmlns="http://www.w3.org/2000/svg" width="24" height="24"><path d="M12.9 8.37c2.03 0 3.09.03 3.9.44a4 4 0 0 1 1.75 1.75c.43.85.43 1.97.43 4.21v1.17c0 2.24 0 3.36-.43 4.22a4 4 0 0 1-1.75 1.74c-.86.44-1.98.44-4.22.44h-1.16c-2.24 0-3.36 0-4.22-.44a4 4 0 0 1-1.75-1.74c-.43-.86-.43-1.98-.43-4.22v-1.17c0-2.24 0-3.36.43-4.21A4 4 0 0 1 7.2 8.8c.82-.42 1.87-.43 3.9-.44v6.35l.01.1a.9.9 0 0 0 1.8 0zm-1.53-6.96a.9.9 0 0 1 1.27 0l2.89 2.88a.9.9 0 0 1-1.27 1.28L12.9 4.22v4.15h-1.8V4.22L9.76 5.57l-.07.06a.9.9 0 0 1-1.27-1.27l.07-.07z"/></svg>

<svg viewBox="0 0 24 24" xmlns="http://www.w3.org/2000/svg" width="24" height="24"><path d="M12.9 8.37C14.93 8.37 15.99 8.4 16.8 8.81A4 4 0 0 1 18.55 10.56C18.98 11.41 18.98 12.53 18.98 14.77L18.98 15.94C18.98 18.18 18.98 19.3 18.55 20.16A4 4 0 0 1 16.8 21.9C15.94 22.34 14.82 22.34 12.58 22.34L11.42 22.34C9.18 22.34 8.06 22.34 7.2 21.9A4 4 0 0 1 5.45 20.16C5.02 19.3 5.02 18.18 5.02 15.94L5.02 14.77C5.02 12.53 5.02 11.41 5.45 10.56A4 4 0 0 1 7.2 8.8C8.02 8.38 9.07 8.37 11.1 8.36L11.11 14.81A.9 .9 0 0 0 12.91 14.81ZM11.37 1.41A.9 .9 0 0 1 12.64 1.41L15.53 4.29A.9 .9 0 0 1 14.26 5.57L12.9 4.22L12.9 8.37L11.1 8.37L11.1 4.22L9.69 5.63A.9 .9 0 0 1 8.42 4.36L8.49 4.29Z"/></svg>
